svg/fluentui-system-icons/ic_fluent_comment_12_regular.svg

<svg width="12" height="12" viewBox="0 0 12 12" fill="none" xmlns="http://www.w3.org/2000/svg">
<path d="M3.5 3C3.22386 3 3 3.22386 3 3.5V7.5C3 7.77614 3.22386 8 3.5 8H4.5C4.77614 8 5 8.22386 5 8.5V9.1169L6.74275 8.07125C6.82046 8.02463 6.90938 8 7 8H8.5C8.77614 8 9 7.77614 9 7.5V3.5C9 3.22386 8.77614 3 8.5 3H3.5ZM2 3.5C2 2.67157 2.67157 2 3.5 2H8.5C9.32843 2 10 2.67157 10 3.5V7.5C10 8.32843 9.32843 9 8.5 9H7.13849L4.75725 10.4287C4.60278 10.5214 4.41041 10.5239 4.25365 10.4351C4.0969 10.3463 4 10.1801 4 10V9H3.5C2.67157 9 2 8.32843 2 7.5V3.5Z" fill="#212121"/>
</svg>

<svg xmlns="http://www.w3.org/2000/svg" width="12" height="12"><path d="M3.5 3a.5.5 0 0 0-.5.5v4a.5.5 0 0 0 .5.5h1a.5.5 0 0 1 .5.5v.617L6.743 8.07A.5.5 0 0 1 7 8h1.5a.5.5 0 0 0 .5-.5v-4a.5.5 0 0 0-.5-.5h-5ZM2 3.5A1.5 1.5 0 0 1 3.5 2h5A1.5 1.5 0 0 1 10 3.5v4A1.5 1.5 0 0 1 8.5 9H7.138l-2.38 1.429A.5.5 0 0 1 4 10V9h-.5A1.5 1.5 0 0 1 2 7.5v-4Z"/></svg>
